TileServer und Tiles/svg/9/34_4.svg

<?xml version='1.0' encoding='UTF-8' standalone='no'?>
<svg xmlns="http://www.w3.org/2000/svg" width="497pt" viewBox="0 0 497 279" xmlns:xlink="http://www.w3.org/1999/xlink" height="279pt">
 <defs style="stroke:none;" overflow="visible">
  <path id="glyph0-7" d="M 4.125 -5.359375 L 4.125 -4.625 L 1.734375 -4.625 L 1.734375 0 L 0.84375 0 L 0.84375 -5.359375 Z M 4.125 -5.359375 "/>
  <path id="glyph0-6" d="M 4.828125 -5.359375 L 4.828125 -0.734375 L 5.609375 -0.734375 L 5.609375 1.859375 L 4.765625 1.859375 L 4.765625 0 L 1.03125 0 L 1.03125 1.859375 L 0.1875 1.859375 L 0.1875 -0.734375 L 0.625 -0.734375 C 1.082031 -1.367188 1.425781 -2.09375 1.65625 -2.90625 C 1.882812 -3.71875 2.003906 -4.535156 2.015625 -5.359375 Z M 3.984375 -4.671875 L 2.796875 -4.671875 C 2.765625 -4.210938 2.691406 -3.742188 2.578125 -3.265625 C 2.460938 -2.785156 2.316406 -2.320312 2.140625 -1.875 C 1.960938 -1.4375 1.757812 -1.054688 1.53125 -0.734375 L 3.984375 -0.734375 Z M 3.984375 -4.671875 "/>
  <path id="glyph0-5" d="M 2.265625 -5.453125 C 2.878906 -5.453125 3.363281 -5.332031 3.71875 -5.09375 C 4.082031 -4.851562 4.265625 -4.503906 4.265625 -4.046875 C 4.265625 -3.722656 4.175781 -3.460938 4 -3.265625 C 3.820312 -3.078125 3.578125 -2.941406 3.265625 -2.859375 L 3.265625 -2.8125 C 3.472656 -2.757812 3.664062 -2.675781 3.84375 -2.5625 C 4.03125 -2.457031 4.175781 -2.316406 4.28125 -2.140625 C 4.394531 -1.972656 4.453125 -1.753906 4.453125 -1.484375 C 4.453125 -1.035156 4.265625 -0.660156 3.890625 -0.359375 C 3.523438 -0.0546875 2.945312 0.09375 2.15625 0.09375 C 1.769531 0.09375 1.421875 0.0625 1.109375 0 C 0.796875 -0.0625 0.535156 -0.144531 0.328125 -0.25 L 0.328125 -1.046875 C 0.554688 -0.929688 0.820312 -0.832031 1.125 -0.75 C 1.4375 -0.664062 1.78125 -0.625 2.15625 -0.625 C 2.550781 -0.625 2.882812 -0.691406 3.15625 -0.828125 C 3.4375 -0.960938 3.578125 -1.195312 3.578125 -1.53125 C 3.578125 -2.132812 3.066406 -2.4375 2.046875 -2.4375 L 1.328125 -2.4375 L 1.328125 -3.15625 L 1.90625 -3.15625 C 2.363281 -3.15625 2.734375 -3.210938 3.015625 -3.328125 C 3.296875 -3.453125 3.4375 -3.664062 3.4375 -3.96875 C 3.4375 -4.21875 3.328125 -4.40625 3.109375 -4.53125 C 2.898438 -4.664062 2.597656 -4.734375 2.203125 -4.734375 C 1.910156 -4.734375 1.648438 -4.703125 1.421875 -4.640625 C 1.203125 -4.585938 0.960938 -4.503906 0.703125 -4.390625 L 0.390625 -5.09375 C 0.953125 -5.332031 1.578125 -5.453125 2.265625 -5.453125 Z M 2.265625 -5.453125 "/>
  <path id="glyph0-4" d="M 1.734375 -5.359375 L 1.734375 -3.125 L 4.640625 -3.125 L 4.640625 -5.359375 L 5.515625 -5.359375 L 5.515625 0 L 4.640625 0 L 4.640625 -2.390625 L 1.734375 -2.390625 L 1.734375 0 L 0.84375 0 L 0.84375 -5.359375 Z M 1.734375 -5.359375 "/>
  <path id="glyph0-3" d="M 4.9375 0 L 4.046875 0 L 4.046875 -4.625 L 2.453125 -4.625 C 2.367188 -3.5 2.25 -2.59375 2.09375 -1.90625 C 1.945312 -1.21875 1.742188 -0.71875 1.484375 -0.40625 C 1.234375 -0.09375 0.914062 0.0625 0.53125 0.0625 C 0.445312 0.0625 0.363281 0.0546875 0.28125 0.046875 C 0.195312 0.046875 0.125 0.03125 0.0625 0 L 0.0625 -0.65625 C 0.101562 -0.644531 0.144531 -0.632812 0.1875 -0.625 C 0.238281 -0.625 0.289062 -0.625 0.34375 -0.625 C 0.695312 -0.625 0.984375 -1.003906 1.203125 -1.765625 C 1.421875 -2.535156 1.585938 -3.734375 1.703125 -5.359375 L 4.9375 -5.359375 Z M 4.9375 0 "/>
  <path id="glyph0-2" d="M 2.875 -5.453125 C 3.53125 -5.453125 4.015625 -5.304688 4.328125 -5.015625 C 4.640625 -4.734375 4.796875 -4.28125 4.796875 -3.65625 L 4.796875 0 L 4.15625 0 L 3.984375 -0.765625 L 3.953125 -0.765625 C 3.710938 -0.460938 3.460938 -0.242188 3.203125 -0.109375 C 2.953125 0.0234375 2.601562 0.09375 2.15625 0.09375 C 1.664062 0.09375 1.257812 -0.03125 0.9375 -0.28125 C 0.613281 -0.539062 0.453125 -0.941406 0.453125 -1.484375 C 0.453125 -2.023438 0.660156 -2.4375 1.078125 -2.71875 C 1.503906 -3.007812 2.15625 -3.171875 3.03125 -3.203125 L 3.9375 -3.234375 L 3.9375 -3.546875 C 3.9375 -3.992188 3.835938 -4.300781 3.640625 -4.46875 C 3.453125 -4.644531 3.179688 -4.734375 2.828125 -4.734375 C 2.546875 -4.734375 2.28125 -4.691406 2.03125 -4.609375 C 1.78125 -4.523438 1.539062 -4.429688 1.3125 -4.328125 L 1.046875 -4.984375 C 1.285156 -5.117188 1.5625 -5.226562 1.875 -5.3125 C 2.195312 -5.40625 2.53125 -5.453125 2.875 -5.453125 Z M 3.9375 -2.625 L 3.140625 -2.59375 C 2.472656 -2.5625 2.007812 -2.453125 1.75 -2.265625 C 1.5 -2.078125 1.375 -1.816406 1.375 -1.484375 C 1.375 -1.179688 1.460938 -0.957031 1.640625 -0.8125 C 1.828125 -0.675781 2.0625 -0.609375 2.34375 -0.609375 C 2.800781 -0.609375 3.179688 -0.734375 3.484375 -0.984375 C 3.785156 -1.234375 3.9375 -1.617188 3.9375 -2.140625 Z M 3.9375 -2.625 "/>
  <path id="glyph0-1" d="M 5.78125 -7.140625 L 5.78125 -0.796875 L 6.6875 -0.796875 L 6.6875 1.875 L 5.828125 1.875 L 5.828125 0 L 0.921875 0 L 0.921875 1.875 L 0.0625 1.875 L 0.0625 -0.796875 L 0.609375 -0.796875 C 0.847656 -1.210938 1.078125 -1.675781 1.296875 -2.1875 C 1.515625 -2.695312 1.707031 -3.234375 1.875 -3.796875 C 2.039062 -4.367188 2.175781 -4.9375 2.28125 -5.5 C 2.382812 -6.0625 2.453125 -6.609375 2.484375 -7.140625 Z M 4.890625 -6.328125 L 3.265625 -6.328125 C 3.242188 -5.941406 3.179688 -5.503906 3.078125 -5.015625 C 2.972656 -4.535156 2.84375 -4.039062 2.6875 -3.53125 C 2.53125 -3.019531 2.351562 -2.523438 2.15625 -2.046875 C 1.96875 -1.578125 1.769531 -1.160156 1.5625 -0.796875 L 4.890625 -0.796875 Z M 4.890625 -6.328125 "/>
  <path id="glyph0-0" d="M 0.9375 0 L 0.9375 -7.140625 L 5.046875 -7.140625 L 5.046875 0 Z M 1.453125 -0.515625 L 4.546875 -0.515625 L 4.546875 -6.625 L 1.453125 -6.625 Z M 1.453125 -0.515625 "/>
 </defs>
 <image width="497" xlink:href="svg/9/34_4.jpg" height="279"/>
 <g>
  <path d="M 89.257812 139.21875 L 89.257812 145.5625 L 90.164062 145.5625 L 90.164062 148.234375 L 89.304688 148.234375 L 89.304688 146.359375 L 84.398438 146.359375 L 84.398438 148.234375 L 83.539062 148.234375 L 83.539062 145.5625 L 84.085938 145.5625 C 84.324219 145.148438 84.554688 144.683594 84.773438 144.171875 C 84.992188 143.664062 85.183594 143.125 85.351562 142.5625 C 85.515625 141.992188 85.652344 141.421875 85.757812 140.859375 C 85.859375 140.296875 85.929688 139.75 85.960938 139.21875 Z M 88.367188 140.03125 L 86.742188 140.03125 C 86.71875 140.417969 86.65625 140.855469 86.554688 141.34375 C 86.449219 141.824219 86.320312 142.320312 86.164062 142.828125 C 86.007812 143.339844 85.828125 143.835938 85.632812 144.3125 C 85.445312 144.78125 85.246094 145.199219 85.039062 145.5625 L 88.367188 145.5625 Z M 88.367188 140.03125 " transform=" rotate(  340 115.203 143.359) " style="fill:none;stroke-width:3;stroke-linecap:butt;stroke-linejoin:round;stroke:rgb(100%,100%,100%);stroke-opacity:0.6;stroke-miterlimit:10;"/>
  <path d="M 93.261719 140.90625 C 93.917969 140.90625 94.402344 141.054688 94.714844 141.34375 C 95.027344 141.625 95.183594 142.078125 95.183594 142.703125 L 95.183594 146.359375 L 94.542969 146.359375 L 94.371094 145.59375 L 94.339844 145.59375 C 94.097656 145.898438 93.847656 146.117188 93.589844 146.25 C 93.339844 146.382812 92.988281 146.453125 92.542969 146.453125 C 92.050781 146.453125 91.644531 146.328125 91.324219 146.078125 C 91 145.820312 90.839844 145.417969 90.839844 144.875 C 90.839844 144.335938 91.046875 143.921875 91.464844 143.640625 C 91.890625 143.351562 92.542969 143.1875 93.417969 143.15625 L 94.324219 143.125 L 94.324219 142.8125 C 94.324219 142.367188 94.222656 142.058594 94.027344 141.890625 C 93.839844 141.714844 93.566406 141.625 93.214844 141.625 C 92.933594 141.625 92.667969 141.667969 92.417969 141.75 C 92.167969 141.835938 91.925781 141.929688 91.699219 142.03125 L 91.433594 141.375 C 91.671875 141.242188 91.949219 141.132812 92.261719 141.046875 C 92.582031 140.953125 92.917969 140.90625 93.261719 140.90625 Z M 94.324219 143.734375 L 93.527344 143.765625 C 92.859375 143.796875 92.394531 143.90625 92.136719 144.09375 C 91.886719 144.28125 91.761719 144.542969 91.761719 144.875 C 91.761719 145.179688 91.847656 145.402344 92.027344 145.546875 C 92.214844 145.683594 92.449219 145.75 92.730469 145.75 C 93.1875 145.75 93.566406 145.625 93.871094 145.375 C 94.171875 145.125 94.324219 144.742188 94.324219 144.21875 Z M 94.324219 143.734375 " transform=" rotate(  340 115.203 143.359) " style="fill:none;stroke-width:3;stroke-linecap:butt;stroke-linejoin:round;stroke:rgb(100%,100%,100%);stroke-opacity:0.6;stroke-miterlimit:10;"/>
  <path d="M 100.9375 146.359375 L 100.046875 146.359375 L 100.046875 141.734375 L 98.453125 141.734375 C 98.367188 142.859375 98.25 143.765625 98.09375 144.453125 C 97.945312 145.140625 97.742188 145.640625 97.484375 145.953125 C 97.234375 146.265625 96.914062 146.421875 96.53125 146.421875 C 96.445312 146.421875 96.363281 146.414062 96.28125 146.40625 C 96.195312 146.40625 96.125 146.390625 96.0625 146.359375 L 96.0625 145.703125 C 96.101562 145.714844 96.144531 145.726562 96.1875 145.734375 C 96.238281 145.734375 96.289062 145.734375 96.34375 145.734375 C 96.695312 145.734375 96.984375 145.355469 97.203125 144.59375 C 97.421875 143.824219 97.585938 142.625 97.703125 141 L 100.9375 141 Z M 100.9375 146.359375 " transform=" rotate(  340 115.203 143.359) " style="fill:none;stroke-width:3;stroke-linecap:butt;stroke-linejoin:round;stroke:rgb(100%,100%,100%);stroke-opacity:0.6;stroke-miterlimit:10;"/>
  <path d="M 104.652344 140.90625 C 105.308594 140.90625 105.792969 141.054688 106.105469 141.34375 C 106.417969 141.625 106.574219 142.078125 106.574219 142.703125 L 106.574219 146.359375 L 105.933594 146.359375 L 105.761719 145.59375 L 105.730469 145.59375 C 105.488281 145.898438 105.238281 146.117188 104.980469 146.25 C 104.730469 146.382812 104.378906 146.453125 103.933594 146.453125 C 103.441406 146.453125 103.035156 146.328125 102.714844 146.078125 C 102.390625 145.820312 102.230469 145.417969 102.230469 144.875 C 102.230469 144.335938 102.4375 143.921875 102.855469 143.640625 C 103.28125 143.351562 103.933594 143.1875 104.808594 143.15625 L 105.714844 143.125 L 105.714844 142.8125 C 105.714844 142.367188 105.613281 142.058594 105.417969 141.890625 C 105.230469 141.714844 104.957031 141.625 104.605469 141.625 C 104.324219 141.625 104.058594 141.667969 103.808594 141.75 C 103.558594 141.835938 103.316406 141.929688 103.089844 142.03125 L 102.824219 141.375 C 103.0625 141.242188 103.339844 141.132812 103.652344 141.046875 C 103.972656 140.953125 104.308594 140.90625 104.652344 140.90625 Z M 105.714844 143.734375 L 104.917969 143.765625 C 104.25 143.796875 103.785156 143.90625 103.527344 144.09375 C 103.277344 144.28125 103.152344 144.542969 103.152344 144.875 C 103.152344 145.179688 103.238281 145.402344 103.417969 145.546875 C 103.605469 145.683594 103.839844 145.75 104.121094 145.75 C 104.578125 145.75 104.957031 145.625 105.261719 145.375 C 105.5625 145.125 105.714844 144.742188 105.714844 144.21875 Z M 105.714844 143.734375 " transform=" rotate(  340 115.203 143.359) " style="fill:none;stroke-width:3;stroke-linecap:butt;stroke-linejoin:round;stroke:rgb(100%,100%,100%);stroke-opacity:0.6;stroke-miterlimit:10;"/>
  <path d="M 109.121094 141 L 109.121094 143.234375 L 112.027344 143.234375 L 112.027344 141 L 112.902344 141 L 112.902344 146.359375 L 112.027344 146.359375 L 112.027344 143.96875 L 109.121094 143.96875 L 109.121094 146.359375 L 108.230469 146.359375 L 108.230469 141 Z M 109.121094 141 " transform=" rotate(  340 115.203 143.359) " style="fill:none;stroke-width:3;stroke-linecap:butt;stroke-linejoin:round;stroke:rgb(100%,100%,100%);stroke-opacity:0.6;stroke-miterlimit:10;"/>
  <path d="M 116.023438 140.90625 C 116.636719 140.90625 117.121094 141.027344 117.476562 141.265625 C 117.839844 141.507812 118.023438 141.855469 118.023438 142.3125 C 118.023438 142.636719 117.933594 142.898438 117.757812 143.09375 C 117.578125 143.28125 117.335938 143.417969 117.023438 143.5 L 117.023438 143.546875 C 117.230469 143.601562 117.421875 143.683594 117.601562 143.796875 C 117.789062 143.902344 117.933594 144.042969 118.039062 144.21875 C 118.152344 144.386719 118.210938 144.605469 118.210938 144.875 C 118.210938 145.324219 118.023438 145.699219 117.648438 146 C 117.28125 146.304688 116.703125 146.453125 115.914062 146.453125 C 115.527344 146.453125 115.179688 146.421875 114.867188 146.359375 C 114.554688 146.296875 114.292969 146.214844 114.085938 146.109375 L 114.085938 145.3125 C 114.3125 145.429688 114.578125 145.527344 114.882812 145.609375 C 115.195312 145.695312 115.539062 145.734375 115.914062 145.734375 C 116.308594 145.734375 116.640625 145.667969 116.914062 145.53125 C 117.195312 145.398438 117.335938 145.164062 117.335938 144.828125 C 117.335938 144.226562 116.824219 143.921875 115.804688 143.921875 L 115.085938 143.921875 L 115.085938 143.203125 L 115.664062 143.203125 C 116.121094 143.203125 116.492188 143.148438 116.773438 143.03125 C 117.054688 142.90625 117.195312 142.695312 117.195312 142.390625 C 117.195312 142.140625 117.085938 141.953125 116.867188 141.828125 C 116.65625 141.695312 116.355469 141.625 115.960938 141.625 C 115.667969 141.625 115.40625 141.65625 115.179688 141.71875 C 114.960938 141.773438 114.71875 141.855469 114.460938 141.96875 L 114.148438 141.265625 C 114.710938 141.027344 115.335938 140.90625 116.023438 140.90625 Z M 116.023438 140.90625 " transform=" rotate(  340 115.203 143.359) " style="fill:none;stroke-width:3;stroke-linecap:butt;stroke-linejoin:round;stroke:rgb(100%,100%,100%);stroke-opacity:0.6;stroke-miterlimit:10;"/>
  <path d="M 121.53125 140.90625 C 122.1875 140.90625 122.671875 141.054688 122.984375 141.34375 C 123.296875 141.625 123.453125 142.078125 123.453125 142.703125 L 123.453125 146.359375 L 122.8125 146.359375 L 122.640625 145.59375 L 122.609375 145.59375 C 122.367188 145.898438 122.117188 146.117188 121.859375 146.25 C 121.609375 146.382812 121.257812 146.453125 120.8125 146.453125 C 120.320312 146.453125 119.914062 146.328125 119.59375 146.078125 C 119.269531 145.820312 119.109375 145.417969 119.109375 144.875 C 119.109375 144.335938 119.316406 143.921875 119.734375 143.640625 C 120.160156 143.351562 120.8125 143.1875 121.6875 143.15625 L 122.59375 143.125 L 122.59375 142.8125 C 122.59375 142.367188 122.492188 142.058594 122.296875 141.890625 C 122.109375 141.714844 121.835938 141.625 121.484375 141.625 C 121.203125 141.625 120.9375 141.667969 120.6875 141.75 C 120.4375 141.835938 120.195312 141.929688 119.96875 142.03125 L 119.703125 141.375 C 119.941406 141.242188 120.21875 141.132812 120.53125 141.046875 C 120.851562 140.953125 121.1875 140.90625 121.53125 140.90625 Z M 122.59375 143.734375 L 121.796875 143.765625 C 121.128906 143.796875 120.664062 143.90625 120.40625 144.09375 C 120.15625 144.28125 120.03125 144.542969 120.03125 144.875 C 120.03125 145.179688 120.117188 145.402344 120.296875 145.546875 C 120.484375 145.683594 120.71875 145.75 121 145.75 C 121.457031 145.75 121.835938 145.625 122.140625 145.375 C 122.441406 145.125 122.59375 144.742188 122.59375 144.21875 Z M 122.59375 143.734375 " transform=" rotate(  340 115.203 143.359) " style="fill:none;stroke-width:3;stroke-linecap:butt;stroke-linejoin:round;stroke:rgb(100%,100%,100%);stroke-opacity:0.6;stroke-miterlimit:10;"/>
  <path d="M 129.097656 141 L 129.097656 145.625 L 129.878906 145.625 L 129.878906 148.21875 L 129.035156 148.21875 L 129.035156 146.359375 L 125.300781 146.359375 L 125.300781 148.21875 L 124.457031 148.21875 L 124.457031 145.625 L 124.894531 145.625 C 125.351562 144.992188 125.695312 144.265625 125.925781 143.453125 C 126.152344 142.640625 126.273438 141.824219 126.285156 141 Z M 128.253906 141.6875 L 127.066406 141.6875 C 127.035156 142.148438 126.960938 142.617188 126.847656 143.09375 C 126.730469 143.574219 126.585938 144.039062 126.410156 144.484375 C 126.230469 144.921875 126.027344 145.304688 125.800781 145.625 L 128.253906 145.625 Z M 128.253906 141.6875 " transform=" rotate(  340 115.203 143.359) " style="fill:none;stroke-width:3;stroke-linecap:butt;stroke-linejoin:round;stroke:rgb(100%,100%,100%);stroke-opacity:0.6;stroke-miterlimit:10;"/>
  <path d="M 134.203125 141 L 134.203125 141.734375 L 131.8125 141.734375 L 131.8125 146.359375 L 130.921875 146.359375 L 130.921875 141 Z M 134.203125 141 " transform=" rotate(  340 115.203 143.359) " style="fill:none;stroke-width:3;stroke-linecap:butt;stroke-linejoin:round;stroke:rgb(100%,100%,100%);stroke-opacity:0.6;stroke-miterlimit:10;"/>
  <path d="M 137.28125 140.90625 C 137.9375 140.90625 138.421875 141.054688 138.734375 141.34375 C 139.046875 141.625 139.203125 142.078125 139.203125 142.703125 L 139.203125 146.359375 L 138.5625 146.359375 L 138.390625 145.59375 L 138.359375 145.59375 C 138.117188 145.898438 137.867188 146.117188 137.609375 146.25 C 137.359375 146.382812 137.007812 146.453125 136.5625 146.453125 C 136.070312 146.453125 135.664062 146.328125 135.34375 146.078125 C 135.019531 145.820312 134.859375 145.417969 134.859375 144.875 C 134.859375 144.335938 135.066406 143.921875 135.484375 143.640625 C 135.910156 143.351562 136.5625 143.1875 137.4375 143.15625 L 138.34375 143.125 L 138.34375 142.8125 C 138.34375 142.367188 138.242188 142.058594 138.046875 141.890625 C 137.859375 141.714844 137.585938 141.625 137.234375 141.625 C 136.953125 141.625 136.6875 141.667969 136.4375 141.75 C 136.1875 141.835938 135.945312 141.929688 135.71875 142.03125 L 135.453125 141.375 C 135.691406 141.242188 135.96875 141.132812 136.28125 141.046875 C 136.601562 140.953125 136.9375 140.90625 137.28125 140.90625 Z M 138.34375 143.734375 L 137.546875 143.765625 C 136.878906 143.796875 136.414062 143.90625 136.15625 144.09375 C 135.90625 144.28125 135.78125 144.542969 135.78125 144.875 C 135.78125 145.179688 135.867188 145.402344 136.046875 145.546875 C 136.234375 145.683594 136.46875 145.75 136.75 145.75 C 137.207031 145.75 137.585938 145.625 137.890625 145.375 C 138.191406 145.125 138.34375 144.742188 138.34375 144.21875 Z M 138.34375 143.734375 " transform=" rotate(  340 115.203 143.359) " style="fill:none;stroke-width:3;stroke-linecap:butt;stroke-linejoin:round;stroke:rgb(100%,100%,100%);stroke-opacity:0.6;stroke-miterlimit:10;"/>
  <path d="M 144.847656 141 L 144.847656 145.625 L 145.628906 145.625 L 145.628906 148.21875 L 144.785156 148.21875 L 144.785156 146.359375 L 141.050781 146.359375 L 141.050781 148.21875 L 140.207031 148.21875 L 140.207031 145.625 L 140.644531 145.625 C 141.101562 144.992188 141.445312 144.265625 141.675781 143.453125 C 141.902344 142.640625 142.023438 141.824219 142.035156 141 Z M 144.003906 141.6875 L 142.816406 141.6875 C 142.785156 142.148438 142.710938 142.617188 142.597656 143.09375 C 142.480469 143.574219 142.335938 144.039062 142.160156 144.484375 C 141.980469 144.921875 141.777344 145.304688 141.550781 145.625 L 144.003906 145.625 Z M 144.003906 141.6875 " transform=" rotate(  340 115.203 143.359) " style="fill:none;stroke-width:3;stroke-linecap:butt;stroke-linejoin:round;stroke:rgb(100%,100%,100%);stroke-opacity:0.6;stroke-miterlimit:10;"/>
  <g transform=" rotate(  340 115.203 143.359) " style="fill:rgb(13.333333%,13.333333%,13.333333%);fill-opacity:1;">
   <use xlink:href="#glyph0-1" y="146.358795" x="83.478051"/>
   <use xlink:href="#glyph0-2" y="146.358795" x="90.388051"/>
   <use xlink:href="#glyph0-3" y="146.358795" x="95.998051"/>
   <use xlink:href="#glyph0-2" y="146.358795" x="101.778051"/>
   <use xlink:href="#glyph0-4" y="146.358795" x="107.388051"/>
   <use xlink:href="#glyph0-5" y="146.358795" x="113.758051"/>
   <use xlink:href="#glyph0-2" y="146.358795" x="118.658051"/>
   <use xlink:href="#glyph0-6" y="146.358795" x="124.268051"/>
   <use xlink:href="#glyph0-7" y="146.358795" x="130.078051"/>
   <use xlink:href="#glyph0-2" y="146.358795" x="134.408051"/>
   <use xlink:href="#glyph0-6" y="146.358795" x="140.018051"/>
  </g>
 </g>
</svg>

<svg xmlns="http://www.w3.org/2000/svg" xmlns:xlink="http://www.w3.org/1999/xlink" viewBox="0 0 497 279"> <defs overflow="visible" style="stroke:none">  <path id="g" d="M4.1-5.4v.8H1.7V0H.8v-5.4Zm0 0"/>  <path id="f" d="M4.8-5.4v4.7h.8v2.6h-.8V0H1v1.9H.2V-.7h.4a6.9 6.9 0 0 0 1-2.3A9.6 9.6 0 0 0 2-5.4Zm-.8.7H2.8l-.2 1.4L2-1.9c0 .5-.2.9-.5 1.2H4Zm0 0"/>  <path id="e" d="M2.3-5.5c.6 0 1 .2 1.4.5.4.1.6.5.6 1s-.1.6-.3.8c-.2.2-.4.3-.7.3a2 2 0 0 1 .5.4l.5.5.2.5c0 .5-.2.8-.6 1.1-.4.4-1 .5-1.7.5l-1-.1a3 3 0 0 1-1-.3V-1a4 4 0 0 0 2 .4c.4 0 .7 0 1-.2.2-.2.4-.4.4-.7 0-.6-.6-1-1.6-1h-.7v-.6H2l1-.2c.3-.2.4-.4.4-.7 0-.2 0-.4-.3-.5-.1-.2-.5-.2-.9-.2a3 3 0 0 0-.8 0l-.7.4L.4-5a4.8 4.8 0 0 1 1.9-.5Zm0 0"/>  <path id="d" d="M1.7-5.4V-3h3v-2.4h.7V0h-.8v-2.4H1.7V0H.8v-5.4Zm0 0"/>  <path id="c" d="M5 0H4v-4.6H2.5L2-2 1.5-.4c-.3.3-.6.4-1 .4H0v-.7h.4c.3.1.6-.3.8-.9.2-1 .4-2.2.5-3.9h3.2Zm0 0"/>  <path id="b" d="M2.9-5.5c.6 0 1.1.2 1.4.5.3.3.5.7.5 1.3V0h-.6L4-.8c-.3.3-.5.6-.8.8h-1c-.5 0-1 0-1.3-.3C.6-.5.5-.9.5-1.5c0-.5.2-1 .5-1.2.5-.3 1-.5 2-.5h.8v-.3c.2-.5.2-.8-.2-1l-.8-.2H2l-.7.5L1-5l1-.3.9-.2Zm1 2.9h-.8c-.6 0-1 .1-1.4.3-.1.3-.3.5-.3.8 0 .3 0 .5.2.7l.7.2c.5 0 .9-.1 1.2-.4.3-.2.4-.6.4-1Zm.1 0"/>  <path id="a" d="M5.8-7.1v6.3h.9v2.7h-.9V0H1v1.9H.1V-.8h.5l.7-1.4a14.7 14.7 0 0 0 1-3.3l.2-1.6Zm-1 .8H3.4L3-5a18.6 18.6 0 0 1-1 3L1.7-.8h3.2Zm.1 0"/>  <path d="M1 0v-7.1h4V0Zm.4-.5h3.1v-6.1h-3Zm.1 0"/> </defs> <image xlink:href="svg/9/34_4.jpg" width="497" height="279"/> <path d="M89.3 139.2v6.4h.9v2.6h-.9v-1.8h-4.9v1.8h-.9v-2.6h.6l.7-1.4a14.7 14.7 0 0 0 1-3.3l.2-1.7Zm-1 .8h-1.5l-.2 1.3a18.6 18.6 0 0 1-1 3l-.6 1.3h3.4Zm5 1c.6 0 1.1 0 1.4.2.3.4.5.9.5 1.5v3.7h-.7l-.1-.8-.9.7-.9.1c-.6.1-1.1-.1-1.4-.4-.2-.2-.4-.6-.4-1.1 0-.6.2-1 .7-1.3.4-.2 1-.4 2-.4h.7v-.5c.1-.3.1-.6-.2-.9l-.8-.1c-.2-.1-.5-.1-.8.1l-.7.2-.3-.6.9-.4h1Zm1 2.6h-.8c-.5.3-1.1.4-1.4.6-.1.1-.3.3-.3.7 0 .3 0 .5.2.6.2.2.4.3.7.3.5 0 .9-.2 1.3-.5.2-.3.3-.6.3-1.1ZM101 146.4h-1v-4.7h-1.5l-.5 2.8-.5 1.5c-.3.3-.6.4-1 .4h-.4v-.7h.3c.3 0 .6-.3.8-1.1.2-.8.4-2 .5-3.6h3.2Zm3.7-5.4c.6 0 1 0 1.3.2.4.4.6.9.6 1.5v3.7h-.7l-.1-.8-.8.7-1 .1c-.7.1-1-.1-1.4-.4-.2-.2-.4-.6-.4-1.1 0-.6.2-1 .8-1.3.3-.2.9-.4 1.9-.4h.7v-.5c.1-.3.1-.6-.2-.9l-.8-.1c-.3-.1-.5-.1-.8.1l-.7.2-.3-.6.9-.4h1Zm1 2.6h-.7c-.8.3-1.2.4-1.5.6-.2.1-.3.3-.3.7 0 .3 0 .5.2.6.2.2.4.3.7.3.5 0 .9-.2 1.2-.5.3-.3.4-.6.4-1.1Zm3.4-2.6v2.2h3V141h.7v5.4h-.8V144h-2.9v2.4h-.9V141Zm6.9 0c.6 0 1.1 0 1.5.2.3.3.5.7.5 1.1 0 .3 0 .7-.2.8l-.8.4a2 2 0 0 1 .6.3l.4.4c.2.2.2.4.2.8 0 .3-.2.7-.6 1-.3.3-.9.5-1.6.5l-1-.1a3 3 0 0 1-1-.4v-.7a4 4 0 0 0 1.9.4c.4 0 .7 0 1.1-.2.2-.1.3-.3.3-.7 0-.6-.5-.8-1.5-.8h-.7v-.8h.6c.3 0 .8 0 1-.2.5 0 .6-.3.6-.6s-.2-.4-.4-.6l-1-.2a3 3 0 0 0-.6.1l-.8.3-.5-.7a4.8 4.8 0 0 1 2.1-.4Zm5.5 0c.7 0 1.2 0 1.5.2.3.4.5.9.5 1.5v3.7h-.7l-.2-.8-.6.7-1.1.1c-.7.1-1.1-.1-1.4-.4-.2-.2-.5-.6-.5-1.1.1-.6.3-1 .7-1.3.5-.2 1.1-.4 2-.4h.9v-.5c0-.3-.1-.6-.3-.9l-.8-.1c-.3-.1-.6-.1-.8.1l-.7.2-.3-.6.8-.4h1Zm1 2.6h-.6c-.8.3-1.2.4-1.5.6-.2.1-.4.3-.4.7 0 .3.1.5.3.6.2.2.4.3.7.3.5 0 .8-.2 1.1-.5.3-.3.5-.6.5-1.1Zm6.6-2.6v4.6h.8v2.6h-.9v-1.8h-3.7v1.8h-.8v-2.6h.4a6.9 6.9 0 0 0 1-2.1 9.6 9.6 0 0 0 .4-2.5Zm-.8.7H127c0 .3 0 1-.2 1.3 0 .6-.2 1-.4 1.5l-.6 1.1h2.5Zm5.9-.7v.7h-2.4v4.7h-.8V141Zm3.1 0c.6 0 1.1 0 1.4.2.3.4.5.9.5 1.5v3.7h-.6l-.2-.8-.8.7-1 .1c-.6.1-1-.1-1.3-.4-.3-.2-.3-.6-.3-1.1-.1-.6 0-1 .5-1.3.4-.2 1-.4 2-.4h.7v-.5c.1-.3.1-.6-.2-.9l-.8-.1c-.2-.1-.5-.1-.8.1l-.7.2-.2-.6.8-.4h1Zm1 2.6h-.8c-.5.3-1 .4-1.3.6-.3.1-.4.3-.4.7 0 .3 0 .5.2.6.2.2.5.3.8.3.4 0 .8-.2 1-.5.5-.3.6-.6.6-1.1Zm6.5-2.6v4.6h.8v2.6h-.8v-1.8H141v1.8h-.8v-2.6h.4a6.9 6.9 0 0 0 1-2.1 9.6 9.6 0 0 0 .4-2.5Zm-.8.7h-1.2c0 .3 0 1-.2 1.3l-.4 1.5-.6 1.1h2.4Zm0 0" style="fill:none;stroke-width:3;stroke-linecap:butt;stroke-linejoin:round;stroke:#fff;stroke-opacity:.6;stroke-miterlimit:10" transform=" rotate(  340 115.203 143.359) "/> <g style="fill:#222;fill-opacity:1" transform=" rotate(  340 115.203 143.359) ">  <use xlink:href="#a" x="83.5" y="146.4"/>  <use xlink:href="#b" x="90.4" y="146.4"/>  <use xlink:href="#c" x="96" y="146.4"/>  <use xlink:href="#b" x="101.8" y="146.4"/>  <use xlink:href="#d" x="107.4" y="146.4"/>  <use xlink:href="#e" x="113.8" y="146.4"/>  <use xlink:href="#b" x="118.7" y="146.4"/>  <use xlink:href="#f" x="124.3" y="146.4"/>  <use xlink:href="#g" x="130.1" y="146.4"/>  <use xlink:href="#b" x="134.4" y="146.4"/>  <use xlink:href="#f" x="140" y="146.4"/> </g></svg>
